X:1
T:La carra fe ci porg'
T:La carra fe ci porg'
T:Giovanni Giacomo de Antiquis
T:Source : Primo libro delle villanelle a 3 voci---Venetia---Figlio d'A.Gardano---1574. Editor : André Vierendeels (13/03/16).
T:Notes : Original clefs : C1, C2, C4 Editorial accidentals above the staff Music by composers from Bari, collected by Giovanni de Antiquis "Alla napolitana" 
T:©
T:©
C:Giovanni Giacomo de Antiquis
Z:©
%%score [ 1 [ 2 3 ] ]
L:1/8
Q:1/4=120
M:4/4
K:C
V:1 treble nm="Soprano" snm="S"
V:2 treble-8 nm="Tenor 1" snm="T 1"
V:3 treble-8 nm="Tenor 2" snm="T 2"
V:1
 E8 | E4 E4 | F4 F2 E2- | E2 F2 G2 A2 | G4 A2 A2- | A2 G2 F2 G2 |[M:3/4] E4 D2 :: E2 E2 D2 | %8
w: 1)La|car- ra|fe ci porg'|_ o- gni spe-|1)ran- za, porg'|_ o- gni spe-|ran- za,|e la spe-|
w: 2)Pro-|ce- de'ho-|nor da mol-|* ta di- gni-|2)ta- de, mol-|* ta di- gni-|ta- de,|e di- gni-|
w: 3)So-|stien si|la spe- ran-|* za con le|3)fe- de, con-|* * * la|fe- de,|e fe- de|
w: 4)Na-|sce l'a-|mor da for-|* ma di del-|4)ta- de, for-|* ma di del-|ta- de,|e fe- del-|
w: 5)La|for- za|co'l va- lor|_ na- sce da|5)Di- o, na-|* * sce da|Di- o,|da cui de-|
[M:4/4] E2 C2 DCDE | F2 G2 E2 F2 | G4 F4 | z2 A2 A2 G2 | A2 c2 _B4 | A2 A2 A2 G2 | G2 A2 B4 | %15
w: ran- za da _ _ _|1)(a) con- fort al|co- re,|chi cam- pa|da spe- ran-|1)za, chi cam- pa|da spe- ran-|
w: ta da for- * * *|2)za e da va-|lo- re,|chi cam- pa|da spe- ran-|2)za, chi cam- pa|da spe- ran-|
w: si so- stien _ _ _|3) con ve- ro'A-|mo- re,|chi cam- pa|da spe- ran-|3)za, chi cam- pa|da spe- ran-|
w: ta ne vien _ _ _|4) da mol- to'ho-|no- re,|chi cam- pa|da spe- ran-|4)za, chi cam- pa|da spe- ran-|
w: ri- va'o- gni _ _ _|5) prin- ci- pio'e|fi- ne,|che tar- de|non fur ma-|5)i, gra- tie Di-|vi- ne, gra-|
 A4 G3 F | E4 D4 :| %17
w: za mai non|mo- re.|
w: za mai non|mo- re.|
w: za mai non|mo- re.|
w: za mai non|mo- re.|
w: tie Di- *|vi- ne.|
V:2
 c8 | B4 ^c4 |"^-natural" d4 d2 c2- | c2 c2 d2 f2- | f2 e2 f2 f2- | f2 e3 d d2- | %6
w: 1)La|car- ra|fe ci porg'|_ o- gni spe-|1) ran- za, porg'|_ o- gni spe-|
w: 2)Pro-|ce- de'ho-|nor da mol-|* ta di- gni-|2)- ta- de, mol-|* ta di- gni-|
w: 3)So-|stien si|la spe- ran-|* za con le|3) fe- de, con-|* la _ fe-|
[M:3/4]"^#" d2 c2 d2 ::"^-natural" c2 c2 B2 |[M:4/4] c2 A2 BABc | d2 d2 c2 f2- | f2 e2 f2 f2 | %11
w: * ran- za,|e la spe-|ran- za da _ _ _|1) con- fort al|_ co- re, chi|
w: * ta- de,|e di- gni-|ta da for _ _ _|2)za e da va-|* lo- re, chi|
w: * * de,,|e fe- de|si so- stien _ _ _|3) prin- ci- pio'e|_ fi- ne, chi|
 f2 e2 f2 d2 | edef g4 | f2 f2 e3 d | e2 c2 dcde | f2 f2 e2 d2- |"^#" d2 c2 d4 :| %17
w: cam- pa de spe-|ran- * * * *|1)za, chi cam- pa|da spe- ran- * * *|za mai non mo-|* * re.|
w: cam- pa da spe-|ran- * * * *|2)za, chi cam- pa|da spe- ran- * * *|za mai non mo-|* * re,|
w: cam- pa da spe-|ran- * * * *|3)za, chi cam- pa|da spe- ran- * * *|za mai non mo-|* * re.|
V:3
 A8 | ^G4 A4 | D4 D2 A2- | A2 A2 G2 F2 | c4 F2 F2- | F2 c2 d2 G2 |[M:3/4] A4 D2 :: A2 A2 G2 | %8
w: 4)Na-|sce l'a-|mor da for-|* ma di del-|4)ta- de, for-|* ma di del-|ta- de,|e fe- del-|
w: 5)La|for- za|co'l va- lor|_ na- sce da|5)Di- o, na-|* * sce da|Di- o,|da cui de-|
[M:4/4] A2 F2 G4 | _B4 A2 F2 | c4 F2 d2 | d2 c2 d2 B2 | A4 G4 | d4 c3 B | c2 A2 G4 |"^b" F4 G2 B2 | %16
w: ta ne vien|4)da mol- to'ho-|no- re, chi|cam- pa da spe-|ran- za-|4)chi cam- pa|da spe- ran-|za mai non|
w: ri- va'o- gni|5)prin ci- pio'e|fi- ne, che|tar- de non fur|ma- i|5)gra- cie Di-|vi- * ne,|gra- cie Di-|
 A4 D4 :| %17
w: mo- re.|
w: vi- ne.|

